X: 2
T: Cantiga 412: Virgen Madre groriosa
N: harmony Ali Corbin
M: 3/4
L: 1/4
Q: 1/4=200
K: D Dorian
%%MIDI program 1       71 clarinet
%%MIDI program 2       74 flute
%%%MIDI program 3       72 piccolo
V:1 clef=treble
V:2 clef=treble
%V:3 clef=treble
%%leftmargin 2cm
[V:1]  D3|(A3/2B/c/B/)|(BAG) |A3 |B3|c3|(B/A/GF)|(G/A/B/c/B/A/)|
w:     Vir- gen***       Ma-**dre gro-ri- o-***    sa,*****
[V:2]  (AGF)|F3|G3|(G/FE/D)|(EDE/F/)|F3|E3|D3|
[V:1]  D3|(A3/2B/c/B/)|(BAG)|A3 |B3|c3|(B/A/GF)|(G/A/B/c/B/A/)| 
w:     de  Deus***      fi-**lla e  e-  spo-***  sa,*****
[V:2] (AGF)|F3|G3|(G/FE/D)|(EDE/F/)|F3|E3|D3|
[V:1] (AGA/B/)|(AG2)|(G/FE/D)|E3 | F3|(GFG/A/)|(G/F/ED)|(EDC) |
w:     san-***  ta,*  no-***  bre, pre- ci-***   o-***    sa,**
[V:2]  D3|E3|F3|(EF/GA/)| (AGA/B/)|c3|B3|A3|
[V:1]   C3|D3|E3|F3|G3|F3|(E/D/E2)|D3 | c3|d3|(c/B/AB/c/)|(d/BA/G)|
w:    quen te lo-ar sa-be- ri-**   a  ou po- di-****     a?***
[V:2]   c3|(BAG)|(GF/ED/)|(D/E/DC)|E3|F3|(A3/2B/c/B/)|A3| (G/F/ED)|(E/DC/D)|E3|G3|
[V:1]  B3| G3|(B2c/d/)|d2 c  |A3|F3|(G/F/E/D/C)|
w:     Ca Deus que**   é lum' e  di- a,****
[V:2]  (G/F/E2)|(F/E/DE)|E3|D3|(EFG)|(A3/2B/c/B/)|G3|
[V:1]  C3| D3  |E3|F3| G3|F3|(E/D/E2)|D3|
w:     se-gund' a  no-ssa na- tu-**   ra
[V:2]  c3|(BAG)|(GF/ED/)|(D/E/DC)|E3|F3|(A3/2B/c/B/)|A3|
[V:1]   E  G2| E  G2|A3|(c/B/A3/2G/)|(FED)|(EDC)|
w:     non vi-ra-mos sa  fi-***       gu-** ra**
[V:2]  (B3/2B/A/G/)|(G3/2G/F/E/)|(FEF)|G3|A3|c3|
[V:1]  C3| D3|C3 |D3 | E3| F3 |(AG2)|(G/F/ED)|(EF/ED/)|D3|
w:     se-non por ti, que fust' al-*  ****     ****    va.
[V:2]  (c/B/AB/c/)|(dB/AG/)|(A/cB/A)|A3|(GAG/F/)|(FD2)|E3|F3|G3|A3|

